X: 232
T:Pat's Parlour
% Nottingham Music Database
S:Trad, arr Phil Rowe
M:6/8
K:D
f/2e/2|"D"dAA A2d|"G"BdB "D"A2A|"D"dcd "Em"efg|"D"fed "A7"eag|
"D"fAA A2d|"G"BdB "A7"A2g|"D"fed "A7"Adc|"D"d3 -d2::
f/2g/2|"D"afd dcd|faf d2f|"A7"g2e "D"f2d|"A7"eAA ABc|
"D"dAA A2d|"G"BdB "A7"A2g|"D"fed "A7"Adc|"D"d3 -d2:|<end>
<start>
